!!!COM:	Bach, Johann Sebastian
!!!CDT:	1685/02/21/-1750/07/28/
!!!OTL@@DE:	Ich dank dir, lieber Herre
!!!SCT:	BWV 37/6
!!!PC#:	341
!!!AGN:	chorale
**kern	**kern	**kern	**kern
*ICvox	*ICvox	*ICvox	*ICvox
*Ibass	*Itenor	*Ialto	*Isoprn
*I"Bass	*I"Tenor	*I"Alto	*I"Soprano
*clefF4	*clefGv2	*clefG2	*clefG2
*k[f#c#g#]	*k[f#c#g#]	*k[f#c#g#]	*k[f#c#g#]
*A:	*A:	*A:	*A:
*M4/4	*M4/4	*M4/4	*M4/4
*met(c)	*met(c)	*met(c)	*met(c)
*MM100	*MM100	*MM100	*MM100
4F#	4A	8c#L	4a
.	.	8dJ	.
=1	=1	=1	=1
4C#	8AL	4e	4a
.	8BJ	.	.
4AA	4c#	4e	4a
4D	8dL	4f#	4a
.	8c#J	.	.
4D#	4B	4f#	4b
=2	=2	=2	=2
4E	4B	4e	4g
4BB	16ALL	4d#	4f#
.	16G#XJ	.	.
.	8AJ	.	.
4E;	4G#;	4B;	4e;
4E	4e	4g#	4b
=3	=3	=3	=3
4AA	4e	4a	4cc#
4E	8eL	4g#	4b
.	8d#J	.	.
4F#	8c#L	8c#L	4a
.	16BL	8d#J	.
.	16AJJ	.	.
8G#L	8BL	[4e	8g#L
8AJ	8c#J	.	8f#J
=4	=4	=4	=4
4B	4B	4e]	4g#
4BB	16ALL	4d#	4f#
.	16G#J	.	.
.	8AJ	.	.
4E;	4G#;	4B;	4e;
4DnX	4G#	4B	4e
=5	=5	=5	=5
4C#	8AL	8c#L	4a
.	8GJ	8dnXJ	.
4C	8F#L	4e	4a
.	8EJ	.	.
8BBL	4F#	8d#L	4a
8C#J	.	8eJ	.
4D#	4F#	4f#	4b
=6	=6	=6	=6
4E	8.G#XL	8BL	4g#X
.	.	[8eJ	.
.	16AJk	.	.
4BB	8BL	8eL]	4f#
.	8AJ	8d#J	.
4E;	4G#;	4e;	4e;
4G#	4B	4e	4b
=7	=7	=7	=7
4A	4A	4e	4cc#
4G#	4B	4e	4b
8C#L	4c#	4.e	4a
8D#J	.	.	.
4E	8BL	.	8g#L
.	8d#XJ	8d#	8f#J
=8	=8	=8	=8
4AA	4e	4c#	4g#
4BB	4B	4d#	4f#
4E;	4G#;	4B;	4e;
4C#	4c#	4g#	4ee
=9	=9	=9	=9
8F#L	8AL	4f#	4dd
8G#J	8BJ	.	.
4A	8c#L	8eL	4cc#
.	8dJ	8f#J	.
8EL	4e	4g#	4b
8DJ	.	.	.
4C#	4e	8aL	4a
.	.	8gJ	.
=10	=10	=10	=10
4D	4d	8f#L	8aL
.	.	8g#XJ	8bJ
4AA	8c#L	4a	4cc#
.	8dJ	.	.
4E;	4e;	4g#;	4b;
4C#	4e	4a#	4cc#
=11	=11	=11	=11
4BB	4f#	4b	4dd
4C#	4e	4a#	4cc#
8DL	8f#L	4b	4b
8EJ	16eL	.	.
.	16dJJ	.	.
4F#	4c#	4f#	4a#
=12	=12	=12	=12
2.BB;	2.d;	2.f#;	2.b;
4C#	4G#	4e	4e
=13	=13	=13	=13
4F#	4F#	4c#	4a
4E	4G#	4e	4b
4A	4A	4e	4cc#
4F#	8AL	4f#	4dd
.	8BJ	.	.
=14	=14	=14	=14
4C#	4c#	4e	4ee
4D	8BL	4f#	8ddL
.	8AJ	.	8cc#J
4E;	4e;	4g#;	4b;
8F#L	8AL	4f#	4dd
8G#J	8BJ	.	.
=15	=15	=15	=15
4A	8c#L	4e	4cc#
.	8dJ	.	.
8G#L	4e	8eL	4b
8F#J	.	8f#J	.
8EL	4B	4g#	4.ee
8DJ	.	.	.
8C#L	[4A	4a	.
8BBJ	.	.	8dd
=16	=16	=16	=16
8AAL	4A]	[2e	8cc#L
8BBJ	.	.	8bJ
8C#L	2A	.	8aL
8DJ	.	.	8bJ
4E	.	8eL]	4cc#
.	.	8dJ	.
4E	4G#	8dL	4b
.	.	8c#J	.
=17	=17	=17	=17
2.AA;	2.E;	2.c#;	2.a;
==	==	==	==
*-	*-	*-	*-
!!!hum2abc: -Q ''
!!!title: @{PC#}. @{OTL@@DE}
!!!YOR1: 371 vierstimmige Choralges&auml;nge von Johann Sebastian Bach, 
!!!YOR2: 4th ed. by Alfred D&ouml;rffel (Leipzig: Breitkopf und H&auml;rtel, 
!!!YOR2: c.1875). 178 pp. Plate "V.A.10".  reprint: J.S. Bach, 371 Four-Part 
!!!YOR4: Chorales (New York: Associated Music Publishers, Inc., c.1940).
!!!SMS: B&H, 4th ed, Alfred D&ouml;rffel, c.1875, plate V.A.10
!!!EED:  Craig Stuart Sapp
!!!EEV:  2009/05/22
